Obsidian/status/16s/input-touchpad-on.svg

<svg height="16" width="16" xmlns="http://www.w3.org/2000/svg"><path d="m1.7773438 1c-.430889 0-.7773438.39025-.7773438.875v12.25c0 .48475.3464548.875.7773438.875h12.4453122c.430889 0 .777344-.39025.777344-.875v-12.25c0-.48475-.346455-.875-.777344-.875zm10.2226562 1h2v1h-2zm0 2h2v1h-2zm0 2h2v1h-2zm0 2h2v1h-2zm-10 3h5v3h-5zm7 0h5v3h-5z" fill="#d3dae3"/></svg>

<svg xmlns="http://www.w3.org/2000/svg" width="16" height="16" version="1.1">
 <defs>
  <style id="current-color-scheme" type="text/css">
   .ColorScheme-Text { color:#d3dae3; } .ColorScheme-Highlight { color:#5294e2; }
  </style>
 </defs>
 <path style="fill:currentColor" class="ColorScheme-Text" d="M 1.7773438 1 C 1.3464548 1 1 1.39025 1 1.875 L 1 14.125 C 1 14.60975 1.3464548 15 1.7773438 15 L 14.222656 15 C 14.653545 15 15 14.60975 15 14.125 L 15 1.875 C 15 1.39025 14.653545 1 14.222656 1 L 1.7773438 1 z M 12 2 L 14 2 L 14 3 L 12 3 L 12 2 z M 12 4 L 14 4 L 14 5 L 12 5 L 12 4 z M 12 6 L 14 6 L 14 7 L 12 7 L 12 6 z M 12 8 L 14 8 L 14 9 L 12 9 L 12 8 z M 2 11 L 7 11 L 7 14 L 2 14 L 2 11 z M 9 11 L 14 11 L 14 14 L 9 14 L 9 11 z"/>
</svg>
